X:406
T: Shjiapai
N: C1441
O: China, Shanxi, Qitai
S: I, 335(1)]
R: Wuge, Yangge, Jinzhong yangge]
M: 2/4
L: 1/32
K: Bb
z4d2f2b4a2g2 | g4d4f4g2b2 | d4
d2f2b4a2g2 | d2f2b4a2g2
d2f2 | b4a2g2f2g2d4 | d4d2f2g4d2f2 | a3cg2f2d8
b6g2b4b2c2 | d3cd2f2g2ded4
d2c4d2=b4c2d2 | g3ag2f2g2d2f4
-f4g4f4=e2e2 | d3fd2g2b3bb2c2
d3cd2f2g2ded2c2 | a3cg2f2d8

